X: 27001
T: Miss Fleming Of Moness
R: strathspey
M: 4/4
K: Gminor
|:E/|D<B, D>F B2 A>G|F>B, G/F/E/D/ E<C C>E|D<B, D>F B2 A>G|A/B/c/A/ F>A B<B, B,>:|
|:c|B>f d<f B>f d<f|F>c A<c F>c A<c|B>f d>f B>f d>f|b/a/g/f/ g>e d<B B>:|
|:E|D<B, F<B, G<B, F<B,|D>F G/F/E/D/ E<C C>E|D<B, F<B, G<B, D>F|B>G F>E D<B, B,>:|
|:g|f>B e/d/c/B/ f<B b>g|f>B e/d/c/B/ c<G G>g|f>B e/d/c/B/ f<B b>a|b>g f>e d<B B>:|

